svgs/solid/monitor-waveform.svg

<svg xmlns="http://www.w3.org/2000/svg" viewBox="0 0 576 512"><!--! Font Awesome Pro 6.6.0 by @fontawesome - https://fontawesome.com License - https://fontawesome.com/license (Commercial License) Copyright 2024 Fonticons, Inc. --><path d="M64 32C28.7 32 0 60.7 0 96L0 416c0 35.3 28.7 64 64 64l448 0c35.3 0 64-28.7 64-64l0-320c0-35.3-28.7-64-64-64L64 32zM80 96l416 0c8.8 0 16 7.2 16 16l0 288c0 8.8-7.2 16-16 16L80 416c-8.8 0-16-7.2-16-16l0-128 0-160c0-8.8 7.2-16 16-16zM96 256l96 0c6.1 0 11.6 3.4 14.3 8.8L224 300.2l49.7-99.4c2.7-5.4 8.3-8.8 14.3-8.8s11.6 3.4 14.3 8.8L329.9 256l70.1 0c8.8 0 16 7.2 16 16s-7.2 16-16 16l-80 0c-6.1 0-11.6-3.4-14.3-8.8L288 243.8l-49.7 99.4c-2.7 5.4-8.3 8.8-14.3 8.8s-11.6-3.4-14.3-8.8L182.1 288 96 288l0 96 384 0 0-256L96 128l0 128z"/></svg>

<svg xmlns="http://www.w3.org/2000/svg" viewBox="0 0 576 512"><!--! Font Awesome Pro 6.4.0 by @fontawesome - https://fontawesome.com License - https://fontawesome.com/license (Commercial License) Copyright 2023 Fonticons, Inc. --><path d="M64 32C28.7 32 0 60.7 0 96V416c0 35.3 28.7 64 64 64H512c35.3 0 64-28.7 64-64V96c0-35.3-28.7-64-64-64H64zM80 96H496c8.8 0 16 7.2 16 16V400c0 8.8-7.2 16-16 16H80c-8.8 0-16-7.2-16-16V272 112c0-8.8 7.2-16 16-16zM96 256h96c6.1 0 11.6 3.4 14.3 8.8L224 300.2l49.7-99.4c2.7-5.4 8.3-8.8 14.3-8.8s11.6 3.4 14.3 8.8L329.9 256H400c8.8 0 16 7.2 16 16s-7.2 16-16 16H320c-6.1 0-11.6-3.4-14.3-8.8L288 243.8l-49.7 99.4c-2.7 5.4-8.3 8.8-14.3 8.8s-11.6-3.4-14.3-8.8L182.1 288H96v96H480V128H96V256z"/></svg>
